svg/s/BI.svg

<svg width="16" height="12" viewBox="0 0 16 12" fill="none" xmlns="http://www.w3.org/2000/svg">
<g clip-path="url(#clip0_270_54956)">
<rect width="16" height="12" fill="white"/>
<rect width="16" height="12" rx="1" fill="#5EAA22"/>
<mask id="path-2-outside-1_270_54956" maskUnits="userSpaceOnUse" x="-4" y="-2" width="24" height="16" fill="black">
<rect fill="white" x="-4" y="-2" width="24" height="16"/>
<path fill-rule="evenodd" clip-rule="evenodd" d="M8 6L16 0H0L8 6ZM8 6L0 12H16L8 6Z"/>
</mask>
<path fill-rule="evenodd" clip-rule="evenodd" d="M8 6L16 0H0L8 6ZM8 6L0 12H16L8 6Z" fill="#DD2C2B"/>
<path d="M16 0L16.75 1L19.75 -1.25H16V0ZM0 0V-1.25H-3.75L-0.75 1L0 0ZM0 12L-0.75 11L-3.75 13.25H0V12ZM16 12V13.25H19.75L16.75 11L16 12ZM15.25 -1L7.25 5L8.75 7L16.75 1L15.25 -1ZM0 1.25H16V-1.25H0V1.25ZM8.75 5L0.75 -1L-0.75 1L7.25 7L8.75 5ZM7.25 5L-0.75 11L0.75 13L8.75 7L7.25 5ZM0 13.25H16V10.75H0V13.25ZM16.75 11L8.75 5L7.25 7L15.25 13L16.75 11Z" fill="white" mask="url(#path-2-outside-1_270_54956)"/>
<path fill-rule="evenodd" clip-rule="evenodd" d="M8 9C9.65685 9 11 7.65685 11 6C11 4.34315 9.65685 3 8 3C6.34315 3 5 4.34315 5 6C5 7.65685 6.34315 9 8 9Z" fill="white"/>
<path fill-rule="evenodd" clip-rule="evenodd" d="M8.0835 5.21436L7.49572 5.52337L7.60797 4.86886L7.13245 4.40534H7.78961L8.0835 3.71436L8.3774 4.40534H9.03456L8.55903 4.86886L8.67129 5.52337L8.0835 5.21436Z" fill="#DD2C2B"/>
<path fill-rule="evenodd" clip-rule="evenodd" d="M6.68104 7.21436L6.09325 7.52337L6.20551 6.86886L5.72998 6.40534H6.38714L6.68104 5.71436L6.97493 6.40534H7.63209L7.15657 6.86886L7.26882 7.52337L6.68104 7.21436Z" fill="#DD2C2B"/>
<path fill-rule="evenodd" clip-rule="evenodd" d="M9.48109 7.21436L8.8933 7.52337L9.00556 6.86886L8.53003 6.40534H9.18719L9.48109 5.71436L9.77498 6.40534H10.4321L9.95661 6.86886L10.0689 7.52337L9.48109 7.21436Z" fill="#DD2C2B"/>
</g>
<defs>
<clipPath id="clip0_270_54956">
<rect width="16" height="12" fill="white"/>
</clipPath>
</defs>
</svg>

<svg width="16" height="12" fill="none" xmlns="http://www.w3.org/2000/svg">
  <mask id="a" maskUnits="userSpaceOnUse" x="0" y="0" width="16" height="12">
    <path fill="#fff" d="M0 0h16v12H0z"/>
  </mask>
  <g mask="url(#a)">
    <rect width="16" height="12" rx="1" fill="#5EAA22"/>
    <mask id="b" maskUnits="userSpaceOnUse" x="-4" y="-2" width="24" height="16" fill="#000">
      <path fill="#fff" d="M-4-2h24v16H-4z"/>
      <path fill-rule="evenodd" clip-rule="evenodd" d="M8 6l8-6H0l8 6zm0 0l-8 6h16L8 6z"/>
    </mask>
    <path fill-rule="evenodd" clip-rule="evenodd" d="M8 6l8-6H0l8 6zm0 0l-8 6h16L8 6z" fill="#DD2C2B"/>
    <path d="M16 0l.75 1 3-2.25H16V0zM0 0v-1.25h-3.75l3 2.25L0 0zm0 12l-.75-1-3 2.25H0V12zm16 0v1.25h3.75l-3-2.25-.75 1zm-.75-13l-8 6 1.5 2 8-6-1.5-2zM0 1.25h16v-2.5H0v2.5zM8.75 5l-8-6-1.5 2 8 6 1.5-2zm-1.5 0l-8 6 1.5 2 8-6-1.5-2zM0 13.25h16v-2.5H0v2.5zM16.75 11l-8-6-1.5 2 8 6 1.5-2z" fill="#fff" mask="url(#b)"/>
    <path fill-rule="evenodd" clip-rule="evenodd" d="M8 9a3 3 0 100-6 3 3 0 000 6z" fill="#fff"/>
    <path fill-rule="evenodd" clip-rule="evenodd" d="M8.084 5.214l-.588.31.112-.655-.476-.464h.658l.294-.69.293.69h.658l-.476.464.112.654-.587-.309zm-1.403 2l-.588.31.113-.655-.476-.464h.657l.294-.69.294.69h.657l-.475.464.112.654-.588-.309zm2.8 0l-.588.31.113-.655-.476-.464h.657l.294-.69.294.69h.657l-.475.464.112.654-.588-.309z" fill="#DD2C2B"/>
  </g>
</svg>
